!!!ONB: MCCC : IFC0021_09 : Extracted Monophonic Melody
!!!COM: Chopin, Frédéric
!!!OPR: Etudes
!!!OMV: 9
!!!SCT: Op.10
!!!ODT: 1829///
**kern
*thru
*staff1
*Ipiano
*clefG2
*k[b-e-a-d-]
*f:
*M6/8
*MM132
8f
8g
8r
8a-
8b-
=2
8r
8cc
8dd-
8cc
8aa-
8gg
=3
8ff
8cc
8dd-
8cc
8a-
8f
=4
2.c
=5
8r
8f
8g
8r
8a-
8b-
=6
8r
8cc
8dd-
8cc
8ccc
8aa-
=7
8gg
8cc
8dd-
8cc
8g
8c
=8
16f
16g
2a-
8r
=9
8r
8f
8g
8r
8a-
8b-
=10
8r
8cc
8dd-
8cc
8aa-
8gg
=11
8ff
8cc
8dd-
8cc
8a-
8f
=12
2.c
=13
8r
8f
8g
8r
8a-
8b-
=14
8r
8cc
8dd-
8cc
8ccc
8aa-
=15
8gg
8cc
8dd-
8cc
8g
8c
=16
2.f
=17
4.a-
8a-
8.g
16a-
=18
4.b-
4.cc
=19
8dd-
8a-
8b-
8a-
8f
8d-
=20
4A-
8r
4r
8e-
=21
4.ee-
8ee-
8dd
8ee-
=22
4.ff
[4.gg-
=23
8gg-]
8dd-
8ee-
8dd-
8b-
8g-
=24
8d-
8dd-
8ee-
8dd-
8a-
8f-
=25
8d-
8dd-
8ee-
8r
8ee
8ff#
=26
8r
8gg
8aa
8r
8bb-
8ccc
=27
*8va
8ddd-
8eee-
8eee
8fff#
8ggg
8aaa
=28
16bbb-
16cccc
4dddd-
*X8va
4r
8r
=29
8ddd-
8ddd-
8ddd-
4ddd-
8ccc
=30
8dd-
8dd-
8dd-
4dd-
8cc
=31
8bb-
8aa-
8bb-
4.ccc
=32
8b-
8a-
8b-
4.cc
=33
*8va
40%3dddd-
40%3dddd-
40%3dddd-
40%3dddd-
*X8va
40%3ddd-
4ddd-
8ccc
=34
40%3ddd-
40%3ddd-
40%3ddd-
40%3ddd-
40%3dd-
4dd-
8cc
=35
40%3bb-
40%3ccc
40%3bb-
40%3aa-
40%3bb-
4.ccc
=36
40%3b-
40%3cc
40%3b-
40%3a-
40%3b-
4.cc
=37
8r
8f
8g
8r
8a-
8b-
=38
8r
8cc
8dd-
8cc
8aa-
8gg
=39
8ff
8cc
8dd-
8cc
8a-
8f
=40
2.c
=41
8r
8f
8g
8r
8a-
8b-
=42
8r
8cc
8dd-
8cc
8ccc
8aa-
=43
8gg
8cc
8dd-
8cc
8g
8c
=44
16f
16g
2a-
8r
=45
8r
8ff
8gg
8r
8aa-
8bb-
=46
8r
8ccc
8ddd-
8ccc
8aaa-
8ggg
=47
8fff
8ccc
8ddd-
8ccc
8aa-
8ff
=48
2.cc
=49
8r
8ff
8gg
8r
8aa
8bb-
=50
8r
8ccc
8ddd-
4.eee-
=51
8r
8bb
8ccc
8r
8ddd
8eee
=52
8r
8fff
8ggg
4.aaa-
=53
8r
8ee
8ff
8aa-
8gg
8aa-
=54
8ccc
8bb-
8ccc
8eee-
8ddd-
8eee-
=55
8fff
8eee
8fff
*8va
8aaa-
8ggg
8aaa-
=56
16aaa
16bbb-
2dddd-
*X8va
8ee
=57
8gg
8gg
8gg
4gg
8ff
=58
8g
8g
8g
4g
8f
=59
8ee
8dd#
8ee
4.ff
=60
8e
8d#
8e
4.f
=61
20ggg
20ggg
20ggg
20ggg
20ggg
16ggg
32r
32gg
4gg
8ff
=62
20gg
20gg
20gg
20gg
20gg
16gg
32r
32g
4g
8f
=63
16ee
16ff
16gg
16aa-
16bb-
16aa-
4.ff
=64
16e
16f
16g
16a-
16b-
16a-
4.f
=65
*8va
16bbb-
16ccc
16aaa-
16ccc
16bbb-
16ccc
16aaa-
16ccc
16bbb-
16ccc
16aaa-
16ccc
=66
16ggg
16aa-
16fff
16aa-
16ggg
16aa-
16fff
16aa-
16ggg
16aa-
16fff
16aa-
=67
8ffff
*X8va
8r
8r
4r
8r
==
*-
